rospo-light/16x16/actions/distribute-graph-directed.svg

<svg height="16" viewBox="0 0 16 16" width="16" xmlns="http://www.w3.org/2000/svg"><path d="m1.5039062.00585938a1.5 1.5 0 0 0 -1.49999995 1.50000002 1.5 1.5 0 0 0 1.49999995 1.5 1.5 1.5 0 0 0 1.5-1.5 1.5 1.5 0 0 0 -1.5-1.50000002zm12.9999998 0a1.5 1.5 0 0 0 -1.5 1.50000002 1.5 1.5 0 0 0 1.5 1.5 1.5 1.5 0 0 0 1.5-1.5 1.5 1.5 0 0 0 -1.5-1.50000002zm-1.71875 2.56250002-3.8457029 4.1875.75.6875 3.8457029-4.1875c-.14166-.13539-.4734-.42281-.75-.6875zm-9.5624998.0625-.75.6875 3.8085938 4.1015625.7539062-.6953125zm4.7792969 4.375a1.5 1.5 0 0 0 -1.5 1.5 1.5 1.5 0 0 0 1.5 1.4999996 1.5 1.5 0 0 0 1.5-1.4999996 1.5 1.5 0 0 0 -1.5-1.5zm-.5 3.4374996v2.125h1v-2.125c-.39714.004-.70479.0007-1 0zm .5 2.5625a1.5 1.5 0 0 0 -1.5 1.5 1.5 1.5 0 0 0 1.5 1.5 1.5 1.5 0 0 0 1.5-1.5 1.5 1.5 0 0 0 -1.5-1.5z" fill="#5c616c"/></svg>

<?xml version="1.0" encoding="UTF-8" standalone="no"?>
<svg xmlns="http://www.w3.org/2000/svg" width="22" height="22" viewBox="0 0 22 22">
 <defs>
  <style type="text/css" id="current-color-scheme">
   .ColorScheme-Text { color:#5c616c; } .ColorScheme-Highlight { color:#5294e2; }
  </style>
 </defs>
 <path style="fill:currentColor;opacity:1" class="ColorScheme-Text" transform="translate(3 3)" d="M 1.5039062 0.005859375 A 1.5 1.5 0 0 0 0.00390625 1.5058594 A 1.5 1.5 0 0 0 1.5039062 3.0058594 A 1.5 1.5 0 0 0 3.0039062 1.5058594 A 1.5 1.5 0 0 0 1.5039062 0.005859375 z M 14.503906 0.005859375 A 1.5 1.5 0 0 0 13.003906 1.5058594 A 1.5 1.5 0 0 0 14.503906 3.0058594 A 1.5 1.5 0 0 0 16.003906 1.5058594 A 1.5 1.5 0 0 0 14.503906 0.005859375 z M 12.785156 2.5683594 L 8.9394531 6.7558594 L 9.6894531 7.4433594 L 13.535156 3.2558594 C 13.393496 3.1204694 13.061756 2.8330494 12.785156 2.5683594 z M 3.2226562 2.6308594 L 2.4726562 3.3183594 L 6.28125 7.4199219 L 7.0351562 6.7246094 L 3.2226562 2.6308594 z M 8.0019531 7.0058594 A 1.5 1.5 0 0 0 6.5019531 8.5058594 A 1.5 1.5 0 0 0 8.0019531 10.005859 A 1.5 1.5 0 0 0 9.5019531 8.5058594 A 1.5 1.5 0 0 0 8.0019531 7.0058594 z M 7.5019531 10.443359 L 7.5019531 12.568359 L 8.5019531 12.568359 L 8.5019531 10.443359 C 8.1048131 10.447359 7.7971631 10.444059 7.5019531 10.443359 z M 8.0019531 13.005859 A 1.5 1.5 0 0 0 6.5019531 14.505859 A 1.5 1.5 0 0 0 8.0019531 16.005859 A 1.5 1.5 0 0 0 9.5019531 14.505859 A 1.5 1.5 0 0 0 8.0019531 13.005859 z"/>
</svg>
